!!!LAR: Arban, Jean-Baptiste
!!!OTL: My Own, My Guiding Star (Robin Hood)
!!!OPR: The Art of Phrasing: 150 Classic and Popular Melodies
!!!ONM: No. 007
!!!OMD: Andante cantabile
**kern	**dynam
*ITromp	*
*ITrd1c2	*
*clefG2	*
*A-:	*
*k[b-e-a-d-]	*
*M4/4	*
*met(c)	*
=1	=1
4e-	p<
(8.fL	(
16g)J	(
(4a-	(
4g)	.[
=2	=2
(4b-	>
4a-)	)
4.dd-,	)
8cc	]
=3	=3
(4b-	.
4f)	.
(4.g	.
8f)	.
=4	=4
(4f	.
4e-)	.
4r	.
8r	.
8e-	.
=5	=5
4e-	<
(8.fL	(
16g)J	(
(4a-	(
4g)	.[
=6	=6
(4b-	>
4a-)	)
4ee-,	)
(8.dd-L	)
16cc)J	]
=7	=7
(4b-	.
4f)	.
(4cc	.
8.b-)L	.
16e-J	.
=8	=8
2a-	.
4r	.
*E-:	*
(8.gL	.
16a-)J	.
=9	=9
(4b-	<
4cc)	(
4.b-	[
8f	.
=10	=10
(4.b-	<
8cc)	(
4b-,	[
4g	.
=11	=11
4g	.
(8fL	.
8g)J	.
(8a-L	.
8b-)	.
8cc	.
8b-J	.
=12	=12
(4a-	.
4g)	.
4r	.
(8.gL	.
16a-)J	.
=13	=13
(4b-	<
(ddq	(
4cc))	(
4.b-	[
8f	.
=14	=14
(4.b-	<
8cc)	(
(8b-L	(
8ee-)	(
(8.dd	(
16cc)J	[
=15	=15
(4cc	.
!!LO:TX:i:b:t=ritard.
8.fL	.
16g)J	.
(8a-	.
16b-QL	.
16a-QJ	.
8.gL	.
16f)J	.
=16	=16
(4e-	.
*A-:	*
2dd-),	.
4e-	.
=17	=17
4e-	<
(8.fL	(
16g)J	(
(4a-	(
4g)	.[
=18	=18
(4b-	>
4a-)	)
4.dd-,	)
8cc	]
=19	=19
(4.b-	<
8f)	(
(4.cc	(
8f)	(
(16eQL	(
16fQJ	[
=20	=20
(4ee-^)	f
4dd^	.
4dd-^)	.
8r	.
8f	.
=21	=21
(4.b-	.
8e-)	.
(12a-L	.
12g	.
12cc)J	.
(8.b-L;	.
16a-)J	.
=22	=22
2.a-	.
4r	.
==|!	==|!
*-	*-
!!!OCL: Edwin Franko Goldman
!!!OCL: Walter M. Smith
!!!OCL: Claude Gordon
!!!YOR: Arban's Complete Conservatory Method for Trumpet/Cornet
!!!PPR: Carl Fischer
!!!PPP: New York, NY
!!!PDT: 1893///
!!!reprint: Carl Fischer, 1982: ISBN 0-8258-0385-3
!!!EFL: 7/150
!!!ENC: Hubert Léveillé Gauvin
!!!END: 2018/05/16/
